Newaita-dark/.DP/16/weather-storm.svg

<svg xmlns="http://www.w3.org/2000/svg" xmlns:xlink="http://www.w3.org/1999/xlink" width="16px" height="16px" viewBox="0 0 16 16" version="1.1">
<defs>
<linearGradient id="linear0" gradientUnits="userSpaceOnUse" x1="232.832993" y1="222.917007" x2="232.832993" y2="48.292" >
<stop offset="0" style="stop-color:rgb(100%,79.215688%,15.686275%);stop-opacity:1;"/>
<stop offset="1" style="stop-color:rgb(100%,83.529413%,30.980393%);stop-opacity:1;"/>
</linearGradient>
<linearGradient id="linear1" gradientUnits="userSpaceOnUse" x1="960" y1="1695.118042" x2="960" y2="815.117981" gradientTransform="matrix(0.00827,0,0,0.00827,0,-5.217)">
<stop offset="0" style="stop-color:rgb(47.058824%,56.470591%,61.176473%);stop-opacity:1;"/>
<stop offset="1" style="stop-color:rgb(56.470591%,64.313728%,68.235296%);stop-opacity:1;"/>
</linearGradient>
<radialGradient id="radial0" gradientUnits="userSpaceOnUse" cx="450.908997" cy="189.578995" fx="450.908997" fy="189.578995" r="21.167" gradientTransform="matrix(0,-0.03907,-0.07032,0,20.441999,31.466999)">
<stop offset="0" style="stop-color:rgb(0%,0%,0%);stop-opacity:0.314;"/>
<stop offset="0.222" style="stop-color:rgb(0%,0%,0%);stop-opacity:0.275;"/>
<stop offset="1" style="stop-color:rgb(0%,0%,0%);stop-opacity:0;"/>
</radialGradient>
<radialGradient id="radial1" gradientUnits="userSpaceOnUse" cx="450.908997" cy="189.578995" fx="450.908997" fy="189.578995" r="21.167" gradientTransform="matrix(0,0.03907,0.07032,0,-5.889,-4.095)">
<stop offset="0" style="stop-color:rgb(0%,0%,0%);stop-opacity:0.314;"/>
<stop offset="0.222" style="stop-color:rgb(0%,0%,0%);stop-opacity:0.275;"/>
<stop offset="1" style="stop-color:rgb(0%,0%,0%);stop-opacity:0;"/>
</radialGradient>
<radialGradient id="radial2" gradientUnits="userSpaceOnUse" cx="450.908997" cy="189.578995" fx="450.908997" fy="189.578995" r="21.167" gradientTransform="matrix(0,-0.03907,0.07032,0,-5.889,31.466999)">
<stop offset="0" style="stop-color:rgb(0%,0%,0%);stop-opacity:0.314;"/>
<stop offset="0.222" style="stop-color:rgb(0%,0%,0%);stop-opacity:0.275;"/>
<stop offset="1" style="stop-color:rgb(0%,0%,0%);stop-opacity:0;"/>
</radialGradient>
<radialGradient id="radial3" gradientUnits="userSpaceOnUse" cx="450.908997" cy="189.578995" fx="450.908997" fy="189.578995" r="21.167" gradientTransform="matrix(0,0.03907,-0.07032,0,20.441999,-4.095)">
<stop offset="0" style="stop-color:rgb(0%,0%,0%);stop-opacity:0.314;"/>
<stop offset="0.222" style="stop-color:rgb(0%,0%,0%);stop-opacity:0.275;"/>
<stop offset="1" style="stop-color:rgb(0%,0%,0%);stop-opacity:0;"/>
</radialGradient>
</defs>
<g id="surface1">
<path style="fill-rule:nonzero;fill:url(#linear0);stroke-width:3;stroke-linecap:square;stroke-linejoin:round;stroke:rgb(12.941177%,12.941177%,12.941177%);stroke-opacity:1;stroke-miterlimit:4;" d="M 248.75 53.585007 C 245.375 53.460007 242 55.085007 239.875 58.085007 L 188.25 131.835007 C 186 134.960007 185.75 138.960007 187.375 142.335007 C 188.875 146.210007 192.75 148.835007 197.125 148.835007 L 266.5 148.835007 L 226.625 205.835007 C 223.25 210.710007 224.5 217.210007 229.25 220.585007 C 234 223.960007 240.625 222.835007 244 217.960007 L 294.5 145.835007 C 296.5 143.960007 297.75 141.335007 297.75 138.335007 C 297.75 133.335007 294.25 129.210007 289.75 128.085007 C 288.375 127.710007 287.125 127.585007 285.875 127.710007 L 217 127.710007 L 257.25 70.210007 C 260.625 65.460007 259.375 58.835007 254.625 55.460007 C 252.875 54.210007 250.875 53.585007 248.75 53.585007 Z M 248.75 53.585007 " transform="matrix(0.03125,0,0,0.03125,0,6.72)"/>
<path style=" stroke:none;fill-rule:nonzero;fill:url(#linear1);" d="M 10.914062 1.523438 C 9.511719 1.519531 8.230469 2.328125 7.628906 3.597656 C 6.320312 3.242188 4.957031 3.941406 4.472656 5.207031 C 4.136719 4.960938 3.726562 4.832031 3.308594 4.832031 C 2.78125 4.828125 2.277344 5.039062 1.90625 5.410156 C 1.53125 5.78125 1.324219 6.289062 1.324219 6.816406 C 1.324219 7.382812 1.566406 7.925781 1.992188 8.304688 C 2.417969 8.679688 2.984375 8.855469 3.546875 8.785156 C 3.578125 8.796875 3.605469 8.800781 3.636719 8.800781 L 10.914062 8.800781 C 11.882812 8.800781 12.808594 8.417969 13.492188 7.738281 C 14.171875 7.054688 14.554688 6.125 14.554688 5.160156 C 14.558594 4.195312 14.175781 3.269531 13.492188 2.585938 C 12.808594 1.902344 11.878906 1.519531 10.914062 1.523438 Z M 10.914062 1.523438 "/>
<path style=" stroke:none;fill-rule:nonzero;fill:rgb(100%,100%,100%);fill-opacity:0.392;" d="M 10.914062 1.523438 C 9.511719 1.519531 8.230469 2.328125 7.628906 3.597656 C 6.320312 3.242188 4.957031 3.941406 4.472656 5.207031 C 4.136719 4.960938 3.726562 4.832031 3.308594 4.832031 C 2.78125 4.828125 2.277344 5.039062 1.90625 5.410156 C 1.53125 5.78125 1.324219 6.289062 1.324219 6.816406 L 1.324219 6.898438 C 1.367188 5.832031 2.242188 4.992188 3.308594 4.996094 C 3.726562 4.996094 4.132812 5.128906 4.472656 5.371094 C 4.957031 4.105469 6.320312 3.410156 7.628906 3.761719 C 8.230469 2.492188 9.511719 1.683594 10.914062 1.6875 C 12.894531 1.683594 14.515625 3.265625 14.550781 5.246094 C 14.554688 5.21875 14.554688 5.191406 14.554688 5.160156 C 14.558594 4.195312 14.175781 3.269531 13.492188 2.585938 C 12.808594 1.902344 11.882812 1.519531 10.914062 1.523438 Z M 10.914062 1.523438 "/>
<path style=" stroke:none;fill-rule:nonzero;fill:rgb(0%,0%,0%);fill-opacity:0.235;" d="M 14.550781 5.085938 C 14.515625 7.066406 12.894531 8.652344 10.914062 8.648438 L 3.636719 8.648438 C 3.605469 8.648438 3.578125 8.644531 3.546875 8.636719 C 3.46875 8.644531 3.386719 8.648438 3.308594 8.648438 C 2.242188 8.652344 1.363281 7.808594 1.324219 6.742188 L 1.324219 6.816406 C 1.324219 7.382812 1.566406 7.925781 1.992188 8.304688 C 2.417969 8.679688 2.984375 8.855469 3.546875 8.785156 C 3.574219 8.796875 3.605469 8.800781 3.636719 8.800781 L 10.914062 8.800781 C 11.878906 8.800781 12.808594 8.417969 13.488281 7.738281 C 14.171875 7.054688 14.554688 6.125 14.554688 5.160156 C 14.554688 5.136719 14.554688 5.113281 14.550781 5.085938 Z M 14.550781 5.085938 "/>
<path style="fill:none;stroke-width:0.09375;stroke-linecap:round;stroke-linejoin:miter;stroke:rgb(12.941177%,12.941177%,12.941177%);stroke-opacity:1;stroke-miterlimit:4;" d="M 10.914062 1.523438 C 9.511719 1.519531 8.230469 2.328125 7.628906 3.597656 C 6.320312 3.242188 4.957031 3.941406 4.472656 5.207031 C 4.136719 4.960938 3.726562 4.832031 3.308594 4.832031 C 2.78125 4.828125 2.277344 5.039062 1.90625 5.410156 C 1.53125 5.78125 1.324219 6.289062 1.324219 6.816406 C 1.324219 7.382812 1.566406 7.925781 1.992188 8.304688 C 2.417969 8.679688 2.984375 8.855469 3.546875 8.785156 C 3.578125 8.796875 3.605469 8.800781 3.636719 8.800781 L 10.914062 8.800781 C 11.882812 8.800781 12.808594 8.417969 13.492188 7.738281 C 14.171875 7.054688 14.554688 6.125 14.554688 5.160156 C 14.558594 4.195312 14.175781 3.269531 13.492188 2.585938 C 12.808594 1.902344 11.878906 1.519531 10.914062 1.523438 Z M 10.914062 1.523438 "/>
<path style=" stroke:none;fill-rule:nonzero;fill:url(#radial0);" d="M 7.277344 13.6875 L 8.601562 13.6875 L 8.601562 13.023438 L 7.277344 13.023438 Z M 7.277344 13.6875 "/>
<path style=" stroke:none;fill-rule:nonzero;fill:url(#radial1);" d="M 7.277344 13.6875 L 5.953125 13.6875 L 5.953125 14.347656 L 7.277344 14.347656 Z M 7.277344 13.6875 "/>
<path style=" stroke:none;fill-rule:nonzero;fill:url(#radial2);" d="M 7.277344 13.6875 L 5.953125 13.6875 L 5.953125 13.023438 L 7.277344 13.023438 Z M 7.277344 13.6875 "/>
<path style=" stroke:none;fill-rule:nonzero;fill:url(#radial3);" d="M 7.277344 13.6875 L 8.601562 13.6875 L 8.601562 14.347656 L 7.277344 14.347656 Z M 7.277344 13.6875 "/>
</g>
</svg>

<svg xmlns="http://www.w3.org/2000/svg" width="16pt" height="16pt" viewBox="0 0 16 16"><defs><linearGradient id="a" gradientUnits="userSpaceOnUse" x1="232.833" y1="222.917" x2="232.833" y2="48.292"><stop offset="0" stop-color="#ffca28"/><stop offset="1" stop-color="#ffd54f"/></linearGradient><linearGradient id="b" gradientUnits="userSpaceOnUse" x1="960" y1="1695.118" x2="960" y2="815.118" gradientTransform="matrix(.00827 0 0 .00827 0 -5.217)"><stop offset="0" stop-color="#78909c"/><stop offset="1" stop-color="#90a4ae"/></linearGradient><radialGradient id="c" gradientUnits="userSpaceOnUse" cx="450.909" cy="189.579" fx="450.909" fy="189.579" r="21.167" gradientTransform="matrix(0 -.03907 -.07032 0 20.442 31.467)"><stop offset="0" stop-opacity=".314"/><stop offset=".222" stop-opacity=".275"/><stop offset="1" stop-opacity="0"/></radialGradient><radialGradient id="d" gradientUnits="userSpaceOnUse" cx="450.909" cy="189.579" fx="450.909" fy="189.579" r="21.167" gradientTransform="matrix(0 .03907 .07032 0 -5.889 -4.095)"><stop offset="0" stop-opacity=".314"/><stop offset=".222" stop-opacity=".275"/><stop offset="1" stop-opacity="0"/></radialGradient><radialGradient id="e" gradientUnits="userSpaceOnUse" cx="450.909" cy="189.579" fx="450.909" fy="189.579" r="21.167" gradientTransform="matrix(0 -.03907 .07032 0 -5.889 31.467)"><stop offset="0" stop-opacity=".314"/><stop offset=".222" stop-opacity=".275"/><stop offset="1" stop-opacity="0"/></radialGradient><radialGradient id="f" gradientUnits="userSpaceOnUse" cx="450.909" cy="189.579" fx="450.909" fy="189.579" r="21.167" gradientTransform="matrix(0 .03907 -.07032 0 20.442 -4.095)"><stop offset="0" stop-opacity=".314"/><stop offset=".222" stop-opacity=".275"/><stop offset="1" stop-opacity="0"/></radialGradient></defs><path d="M248.726 53.6c-3.374-.126-6.75 1.5-8.874 4.499l-51.62 73.743c-2.25 3.125-2.5 7.124-.875 10.499 1.5 3.875 5.375 6.5 9.75 6.5h69.368l-39.872 56.994c-3.374 4.874-2.124 11.374 2.625 14.748 4.75 3.375 11.374 2.25 14.749-2.624l50.495-72.118c2-1.875 3.25-4.5 3.25-7.5 0-5-3.5-9.124-8-10.249-1.375-.375-2.624-.5-3.874-.375h-68.869l40.246-57.494c3.375-4.75 2.125-11.374-2.624-14.749a10.24 10.24 0 0 0-5.875-1.875zm0 0" transform="matrix(.03125 0 0 .03125 0 6.72)" fill="url(#a)" stroke-width="3" stroke-linecap="square" stroke-linejoin="round" stroke="#212121"/><path d="M10.914 1.523A3.624 3.624 0 0 0 7.63 3.598a2.638 2.638 0 0 0-3.156 1.61 1.972 1.972 0 0 0-1.164-.376 1.977 1.977 0 0 0-1.985 1.984 1.98 1.98 0 0 0 2.223 1.97.242.242 0 0 0 .09.015h7.277a3.634 3.634 0 0 0 3.64-3.64 3.631 3.631 0 0 0-3.64-3.638zm0 0" fill="url(#b)"/><path d="M10.914 1.523A3.624 3.624 0 0 0 7.63 3.598a2.638 2.638 0 0 0-3.156 1.61 1.972 1.972 0 0 0-1.164-.376 1.977 1.977 0 0 0-1.985 1.984v.082A1.979 1.979 0 0 1 3.31 4.996a2 2 0 0 1 1.164.375 2.644 2.644 0 0 1 3.156-1.61 3.63 3.63 0 0 1 3.285-2.074 3.63 3.63 0 0 1 3.637 3.56c.004-.028.004-.056.004-.087a3.631 3.631 0 0 0-3.64-3.637zm0 0" fill="#fff" fill-opacity=".392"/><path d="M14.55 5.086a3.627 3.627 0 0 1-3.636 3.562H3.637a.355.355 0 0 1-.09-.011 2.374 2.374 0 0 1-.238.011 1.98 1.98 0 0 1-1.985-1.906v.074a1.98 1.98 0 0 0 2.223 1.97.242.242 0 0 0 .09.015h7.277a3.634 3.634 0 0 0 3.64-3.64c0-.024 0-.048-.003-.075zm0 0" fill-opacity=".235"/><path d="M10.914 1.523A3.624 3.624 0 0 0 7.63 3.598a2.638 2.638 0 0 0-3.156 1.61 1.972 1.972 0 0 0-1.164-.376 1.977 1.977 0 0 0-1.985 1.984 1.98 1.98 0 0 0 2.223 1.97.242.242 0 0 0 .09.015h7.277a3.634 3.634 0 0 0 3.64-3.64 3.631 3.631 0 0 0-3.64-3.638zm0 0" fill="none" stroke-width=".09375" stroke-linecap="round" stroke="#212121"/><path d="M7.277 13.688h1.325v-.665H7.277zm0 0" fill="url(#c)"/><path d="M7.277 13.688H5.953v.66h1.324zm0 0" fill="url(#d)"/><path d="M7.277 13.688H5.953v-.665h1.324zm0 0" fill="url(#e)"/><path d="M7.277 13.688h1.325v.66H7.277zm0 0" fill="url(#f)"/></svg>
